ui/StatusQ/src/assets/img/icons/exclamation_outline.svg

<svg fill="none" height="14" viewBox="0 0 14 14" width="14" xmlns="http://www.w3.org/2000/svg"><g fill="#ff2d55"><path d="m6.99992 3.16671c.27614 0 .5.22386.5.5v4.66666c0 .27615-.22386.5-.5.5s-.5-.22385-.5-.5v-4.66666c0-.27614.22386-.5.5-.5z"/><path d="m6.99992 11.5c.46024 0 .83333-.3731.83333-.8333s-.37309-.83333-.83333-.83333-.83333.37313-.83333.83333.37309.8333.83333.8333z"/><path clip-rule="evenodd" d="m.333252 7.00004c0 3.68186 2.984768 6.66666 6.666668 6.66666 3.68188 0 6.66668-2.9848 6.66668-6.66666 0-3.6819-2.9848-6.666666-6.66668-6.666666-3.6819 0-6.666668 2.984766-6.666668 6.666666zm.999998 0c0 3.12966 2.53705 5.66666 5.66667 5.66666 3.12958 0 5.66668-2.537 5.66668-5.66666 0-3.12961-2.5371-5.66667-5.66668-5.66667-3.12962 0-5.66667 2.53706-5.66667 5.66667z" fill-rule="evenodd"/></g></svg>

<svg width="14" height="14" viewBox="0 0 14 14" fill="none" xmlns="http://www.w3.org/2000/svg">
<path d="M6.99992 3.16671C7.27606 3.16671 7.49992 3.39057 7.49992 3.66671V8.33337C7.49992 8.60952 7.27606 8.83337 6.99992 8.83337C6.72378 8.83337 6.49992 8.60952 6.49992 8.33337V3.66671C6.49992 3.39057 6.72378 3.16671 6.99992 3.16671Z" fill="#FF2D55"/>
<path d="M6.99992 11.5C7.46016 11.5 7.83325 11.1269 7.83325 10.6667C7.83325 10.2065 7.46016 9.83337 6.99992 9.83337C6.53968 9.83337 6.16659 10.2065 6.16659 10.6667C6.16659 11.1269 6.53968 11.5 6.99992 11.5Z" fill="#FF2D55"/>
<path fill-rule="evenodd" clip-rule="evenodd" d="M0.333252 7.00004C0.333252 10.6819 3.31802 13.6667 6.99992 13.6667C10.6818 13.6667 13.6666 10.6819 13.6666 7.00004C13.6666 3.31814 10.6818 0.333374 6.99992 0.333374C3.31802 0.333374 0.333252 3.31814 0.333252 7.00004ZM1.33325 7.00004C1.33325 10.1297 3.8703 12.6667 6.99992 12.6667C10.1295 12.6667 12.6666 10.1297 12.6666 7.00004C12.6666 3.87043 10.1295 1.33337 6.99992 1.33337C3.8703 1.33337 1.33325 3.87043 1.33325 7.00004Z" fill="#FF2D55"/>
</svg>
